icon-themes/breeze_svg/cmd/sc_ungroup.svg

<svg viewBox="0 0 16 16" xmlns="http://www.w3.org/2000/svg"><path d="m6.1666667 6-1.6666667 1.6666667-1.6666667-1.6666667-.8333333.8333333 1.6666666 1.6666669-1.6666666 1.6666678.8333333.833332 1.6666667-1.6666664 1.6666667 1.6666664.8333333-.833332-1.6666666-1.6666678 1.6666666-1.6666669z" fill="#da4453"/><path d="m4 3v1 1h1v-1h3v-1zm5 0v4h5v-4zm1 1h3v2h-3zm-1 6v4h5v-4zm1 1h3v2h-3zm-6 1v1 1h4v-1h-3v-1z" fill="#4d4d4d"/></svg>

<svg viewBox="0 0 16 16" xmlns="http://www.w3.org/2000/svg">
 <path
   style="fill:#da4453"
   d="M 6.1666667,6 4.5,7.6666667 2.8333333,6 2,6.8333333 3.6666666,8.5000002 2,10.166668 2.8333333,11 4.5,9.3333336 6.1666667,11 7,10.166668 5.3333334,8.5000002 7,6.8333333 Z"
   />
<path
   style="fill:#4d4d4d"
   d="M 4,3 V 4 5 H 5 V 4 H 8 V 3 Z m 5,0 v 4 h 5 V 3 Z m 1,1 h 3 v 2 h -3 z m -1,6 v 4 h 5 v -4 z m 1,1 h 3 v 2 h -3 z m -6,1 v 1 1 H 8 V 13 H 5 v -1 z"
   />
</svg>
